X:210
T:Reel 210
M:4/4
K:Bmin
L:1/8
F>E (3DCB, A,>B, (3B,B,B, |D>B, (3B,A,B, F>B, (3BAB |F>E (3DCA, E>C (3A,B,A, |E>A, (3A,A,A, E>A, (3A,B,C :||2E>D (3EDE D2D2|CA,2E CA,EC2|B,EED D>B, (3DB,B, |C>A, (3A,A,A, E>A, (3A,A,A, |CEA,C  (3EDC A,2|CA,A,C DEDB,DB,|CA,AB, FB,B,B,|CA,EC A,2A2|CA,A,C G,2DE|FDB,D DB,B,2|CA,A,C C2DE|FA, (3CB,A, CED2|CA,EC A,2A2|F>D (3DDD F2A2|FEA^G A2AG|
